X:015
T:Byrne's Reel
B:NFID.235a
015byrnes
S:JMcK
L:1/8
M:C
R:reel
Q:360
K:G
Bddd edgd|edgd BAA2|Bddd edgd|BGAG EG G2:|
g2dg agbg|g2dg eaa2|g2dg agbg|edef ggg2|
g2dg agbg|g2dg eaa2|(3bag (3agf gded|BGAG EGG2:|

%%%

